src/main/webapp/data/nzl.svg

<svg height="600" width="1200" xmlns="http://www.w3.org/2000/svg" xmlns:xlink="http://www.w3.org/1999/xlink"><defs><clipPath id="a"><path d="m0 0h600v300h-600z"/></clipPath><clipPath id="b"><path d="m0 0 300 150h-300zm300 0h300l-300 150zm0 150h300v150zm0 0v150h-300z"/></clipPath><g id="c"><g id="d" transform="translate(0 -.324925)"><path d="m0 0v.5l1-.5z"/><path d="m0 0v-.5l1 .5z" transform="matrix(.80901699 -.58778525 .58778525 .80901699 .190983 .587785)"/></g><use transform="scale(-1 1)" xlink:href="#d"/><use transform="matrix(.30901699 .95105652 -.95105652 .30901699 0 0)" xlink:href="#d"/><use transform="matrix(.30901699 -.95105652 .95105652 .30901699 0 0)" xlink:href="#d"/><use transform="matrix(-.30901699 .95105652 .95105652 .30901699 0 0)" xlink:href="#d"/></g></defs><path d="m0 0h1200v600h-1200z" fill="#00247d"/><path clip-path="url(#a)" d="m0 0 600 300m-600 0 600-300" stroke="#fff" stroke-width="60"/><path clip-path="url(#b)" d="m0 0 600 300m-600 0 600-300" stroke="#cc142b" stroke-width="40"/><path clip-path="url(#a)" d="m300 0v300m-300-150h600" stroke="#fff" stroke-width="100"/><path clip-path="url(#a)" d="m300 0v300m-300-150h600" stroke="#cc142b" stroke-width="60"/><use fill="#fff" transform="matrix(45.4 0 0 45.4 900 120)" xlink:href="#c"/><use fill="#cc142b" transform="matrix(30 0 0 30 900 120)" xlink:href="#c"/><g transform="matrix(.1391731 .99026807 -.99026807 .1391731 1012.408546 -684.642806)"><use fill="#fff" transform="matrix(5.62259328 -40.00682998 40.00682998 5.62259328 900 120)" xlink:href="#c"/><use fill="#cc142b" transform="matrix(3.47932752 -24.75670172 24.75670172 3.47932752 900 120)" xlink:href="#c"/><use fill="#fff" transform="matrix(6.31845878 -44.95817032 44.95817032 6.31845878 900 380)" xlink:href="#c"/><use fill="#cc142b" transform="matrix(4.17519303 -29.70804206 29.70804206 4.17519303 900 380)" xlink:href="#c"/></g><use fill="#fff" transform="matrix(50.4 0 0 50.4 900 480)" xlink:href="#c"/><use fill="#cc142b" transform="matrix(35 0 0 35 900 480)" xlink:href="#c"/></svg>

<?xml version="1.0" encoding="UTF-8"?>
<!DOCTYPE svg PUBLIC "-//W3C//DTD SVG 1.1//EN" "http://www.w3.org/Graphics/SVG/1.1/DTD/svg11.dtd">
<svg version="1.1" xmlns="http://www.w3.org/2000/svg" xmlns:xlink="http://www.w3.org/1999/xlink"

height="600" width="1200">

<defs>
<clipPath id="Canton">
<path d="M 0,0 L 600,0 L 600,300 L 0,300 z"/>
</clipPath>

<clipPath id="Diagonals">
<path d="M 0,0 L 300,150 L 0,150 z M 300,0 L 600,0 L 300,150 z M 300,150 L 600,150 L 600,300 z M 300,150 L 300,300 L 0,300 z"/>
</clipPath>

<g id="Pentagram">
<g id="Arm" transform="translate(0,-0.324925)">
<path d="M 0,0 L 0,0.5 L 1,0 z"/>
<path d="M 0,0 L 0,-0.5 L 1,0 z" transform="rotate(-36,1,0)"/>
</g>
<use xlink:href="#Arm" transform="scale(-1,1)"/>
<use xlink:href="#Arm" transform="rotate(72,0,0)"/>
<use xlink:href="#Arm" transform="rotate(-72,0,0)"/>
<use xlink:href="#Arm" transform="rotate(-72,0,0) scale(-1,1)"/>
</g>
</defs>

<rect fill="#00247d" x="0" y="0" width="1200" height="600"/>

<g id="Flag_of_the_United_Kingdom">
<path id="Saint_Andrews_Cross" stroke="#ffffff" d="M 0,0 L 600,300 M 0,300 L 600,0" stroke-width="60" clip-path="url(#Canton)"/>
<path id="Saint_Patricks_Cross" stroke="#cc142b" d="M 0,0 L 600,300 M 0,300 L 600,0" stroke-width="40" clip-path="url(#Diagonals)"/>
<g id="Saint_Georges_Cross">
<path stroke="#ffffff" d="M 300,0 L 300,300 M 0,150 L 600,150" stroke-width="100" clip-path="url(#Canton)"/>
<path stroke="#cc142b" d="M 300,0 L 300,300 M 0,150 L 600,150" stroke-width="60" clip-path="url(#Canton)"/>
</g>
</g>

<g id="Southern_Cross">
<g id="Gamma_Crucis">
<use xlink:href="#Pentagram" fill="#ffffff" transform="translate(900,120) scale(45.4)"/>
<use xlink:href="#Pentagram" fill="#cc142b" transform="translate(900,120) scale(30)"/>
</g>
<g transform="rotate(82,900,240)">
<g id="Delta_Crucis">
<use xlink:href="#Pentagram" fill="#ffffff" transform="translate(900,120) rotate(-82) scale(40.4)"/>
<use xlink:href="#Pentagram" fill="#cc142b" transform="translate(900,120) rotate(-82) scale(25)"/>
</g>
<g id="Beta_Crucis">
<use xlink:href="#Pentagram" fill="#ffffff" transform="translate(900,380) rotate(-82) scale(45.4)"/>
<use xlink:href="#Pentagram" fill="#cc142b" transform="translate(900,380) rotate(-82) scale(30)"/>
</g>
</g>
<g id="Alpha_Crucis">
<use xlink:href="#Pentagram" fill="#ffffff" transform="translate(900,480) scale(50.4)"/>
<use xlink:href="#Pentagram" fill="#cc142b" transform="translate(900,480) scale(35)"/>
</g>
</g>
</svg>
